X: 1
T: Miller's Reel
R: reel
S: Fiddle Hell Online 2021-04-15 Rodney Miller jam
Z: 2021 John Chambers <jc:trillian.mit.edu>
M: C|
L: 1/8
K: A
E2 |\
"A"A,2CE "D"D2FA | "E"E2GB "A"A2cA | "E"BEcE dEcE | BEcB AFEC |
"A"A,2CE "D"D2FA | "E"E2GB "A"A2ce | "D"fefg agaf | "E"ecBc "A"A2 :|
|: (3efg |\
"A"a2ga fece | "E"b2bg agfe | gebe gbeg | "B7"fe^df "E"e2 (3efg |
"A"a2ga fece | "D"fgag "A"fece | "D"fdge afec | "E"BABc "A"A2 :|
